svg/draw_pen.svg

<svg xmlns="http://www.w3.org/2000/svg" viewBox="0 0 24 24"><path d="M9.75 20.85c1.78-.7 1.39-2.63.49-3.85-.89-1.25-2.12-2.11-3.36-2.94A9.8 9.8 0 0 1 4.54 12c-.28-.33-.85-.94-.27-1.06.59-.12 1.61.46 2.13.68.91.38 1.81.82 2.65 1.34l1.01-1.7C8.5 10.23 6.5 9.32 4.64 9.05c-1.06-.16-2.18.06-2.54 1.21-.32.99.19 1.99.77 2.77 1.37 1.83 3.5 2.71 5.09 4.29.34.33.75.72.95 1.18.21.44.16.47-.31.47-1.24 0-2.79-.97-3.8-1.61l-1.01 1.7c1.53.94 4.09 2.41 5.96 1.79m9.21-13.52L13.29 13H11v-2.29l5.67-5.68zm3.4-.78c-.01.3-.32.61-.64.92L19.2 10l-.87-.87 2.6-2.59-.59-.59-.67.67-2.29-2.29 2.15-2.15c.24-.24.63-.24.86 0l1.43 1.43c.24.22.24.62 0 .86-.21.21-.41.41-.41.61-.02.2.18.42.38.59.29.3.58.58.57.88"/></svg>

<svg xmlns="http://www.w3.org/2000/svg" id="mdi-draw-pen" viewBox="0 0 24 24"><path d="M9.75 20.85C11.53 20.15 11.14 18.22 10.24 17C9.35 15.75 8.12 14.89 6.88 14.06C6 13.5 5.19 12.8 4.54 12C4.26 11.67 3.69 11.06 4.27 10.94C4.86 10.82 5.88 11.4 6.4 11.62C7.31 12 8.21 12.44 9.05 12.96L10.06 11.26C8.5 10.23 6.5 9.32 4.64 9.05C3.58 8.89 2.46 9.11 2.1 10.26C1.78 11.25 2.29 12.25 2.87 13.03C4.24 14.86 6.37 15.74 7.96 17.32C8.3 17.65 8.71 18.04 8.91 18.5C9.12 18.94 9.07 18.97 8.6 18.97C7.36 18.97 5.81 18 4.8 17.36L3.79 19.06C5.32 20 7.88 21.47 9.75 20.85M18.96 7.33L13.29 13H11V10.71L16.67 5.03L18.96 7.33M22.36 6.55C22.35 6.85 22.04 7.16 21.72 7.47L19.2 10L18.33 9.13L20.93 6.54L20.34 5.95L19.67 6.62L17.38 4.33L19.53 2.18C19.77 1.94 20.16 1.94 20.39 2.18L21.82 3.61C22.06 3.83 22.06 4.23 21.82 4.47C21.61 4.68 21.41 4.88 21.41 5.08C21.39 5.28 21.59 5.5 21.79 5.67C22.08 5.97 22.37 6.25 22.36 6.55Z" /></svg>
